X:1
T:Cow Hollow, 87.87 D
T:Cow Hollow, 87.87 D
T:Mrs. S. V. Rue, 1900
T:Public Domain Courtesy of the Cyber Hymnal™
C:Mrs. S. V. Rue, 1900
Z:Public Domain
Z:Courtesy of the Cyber Hymnal™
%%score ( 1 2 ) ( 3 4 )
L:1/8
Q:1/4=110
M:9/8
K:Eb
V:1 treble 
V:2 treble 
V:3 bass 
V:4 bass 
V:1
 [EG]2 [FA] | [GB]3 [GB]3 ([Ge][Bd])[Ac] | [GB]3 [EG]3 [EG]2 [EB] | [DB]3 [DF]3 [EG]2 [FA] | %4
 [EG]6 [EG]2 [FA] | [GB]3 [GB]3 ([Ge][Bd])[Ac] | [GB]3 [EG]3 [GB]2 [Ge] | %7
 [Fd]3- [Fd]2 [Ec] [DB]2 [E=A] | [DB]6 (Bc)[Ad] | [Ge]3- [Ge]2 [GB] [Ad]2 [Ac] | %10
 [GB]3 [EG]3 [GB]2 [Ac] | [AB]3- [AB]2 [Ac] [AB]2 [Ac] | [GB]6 (Bc)[Ad] | %13
 [Ge]3- [Ge]2 [Ge] [Af]2 [Ge] | [Bd]3 !fermata![Ac]3 [Fd]2 [^Fe] | [GB]3- [GB]2 [GB] [FA]2 [B,D] | %16
 [B,E]6 |] %17
V:2
 x3 | x9 | x9 | x9 | x9 | x9 | x9 | x9 | x6 A2 x | x9 | x9 | x9 | x6 G2 x | x9 | x9 | x9 | x6 |] %17
V:3
 [E,B,]2 [E,B,] | [E,E]3 [E,E]3 [E,B,]2 [E,E] | [E,E]3 [E,B,]3 [E,B,]2 [E,G,] | %3
 [B,,F,]3 [B,,B,]3 [B,,B,]2 [B,,B,] | [E,B,]6 [E,B,]2 [E,B,] | [E,E]3 [E,E]3 [E,E]2 [E,E] | %6
 [E,E]3 [E,B,]3 [E,E]2 [E,B,] | [F,B,]3- [F,B,]2 [F,=A,] [F,B,]2 [F,C] | [B,,B,]6 z3 | %9
 [E,B,]2 [E,B,] [E,B,]2 [E,B,] [B,,B,]2 [B,,D] | [E,E]3 [E,B,]3 z3 | %11
 [F,D]2 [F,D] [F,D]2 [F,D] [B,,D]2 [B,,D] | [E,E]6 z3 | %13
 [E,B,]2 [E,B,] [E,B,]2 [E,B,] [E,B,]2 [G,B,] | [A,E]3 !fermata![A,E]3 z3 | %15
 [B,E]2 [B,E] [B,E]2 B, [B,,B,]2 [B,,A,] | [E,G,]6 |] %17
V:4
 x3 | x9 | x9 | x9 | x9 | x9 | x9 | x9 | x9 | x9 | x9 | x9 | x9 | x9 | x9 | x5 B, x3 | x6 |] %17

